src/assets/showcase/images/home/icon-mobile.svg

<svg height="60" viewBox="0 0 57 60" width="57" xmlns="http://www.w3.org/2000/svg"><g fill="none" fill-rule="evenodd"><path d="m28.34 0-28.34 9.957 4.323 36.917 24.017 13.105 24.018-13.105 4.323-36.917z" fill="#262b2c" fill-rule="nonzero"/><path d="m20 43.855c0 1.035.856 1.874 1.91 1.874h11.72c1.055 0 1.91-.84 1.91-1.874v-23.455h-15.54zm7.77-1.938c.754 0 1.367.602 1.367 1.341 0 .74-.613 1.342-1.367 1.342-.755 0-1.368-.602-1.368-1.342s.613-1.341 1.368-1.341zm5.858-25.917h-11.717c-1.055 0-1.911.84-1.911 1.874v1.9h15.54v-1.9c-.002-1.034-.857-1.874-1.913-1.874zm-9.207 2.329c-.1140446.0010658-.223841-.0432186-.3052329-.1231102-.0813919-.0798915-.1277112-.1888452-.1287671-.3028898.0010559-.1140446.0473752-.2229983.1287671-.3028898.0813919-.0798916.1911883-.124176.3052329-.1231102.239 0 .434.19.434.426-.0010559.1140446-.0473752.2229983-.1287671.3028898-.0813919.0798916-.1911883.124176-.3052329.1231102zm5.28-.114h-3.862c-.0835443.0007994-.1639841-.0316237-.2236215-.0901358-.0596374-.0585122-.0935866-.1383198-.0943785-.2218642 0-.173.142-.313.318-.313h3.861c.176 0 .319.14.319.313-.0021964.1741332-.144861.3136671-.319.312z" fill="#fff" fill-rule="nonzero"/><g fill="#262b2c" transform="translate(22.5 25)"><path d="m8.13043478 5.95419847-.86086956-.19847328.66956521.99236641v3.07633588l2.29565217-1.98473282v-3.37404581l-1.0521739.39694657z" fill-rule="nonzero"/><path d="m1.53043478 5.95419847-.86086956-.19847328.66956521.99236641v3.07633588l2.29565218-1.98473282v-3.37404581l-1.05217391.39694657z" fill-rule="nonzero" transform="matrix(-1 0 0 1 4.304348 0)"/><path d="m3.25217391 10.3458863v-.39742947l1.30285038.92744647.00695599-.391512-1.30980637-.93239811v-.39742949l1.30285038.9274465.00695599-.391512-1.30980637-.93239814v-1.81153517l.76521739-1.1908397.47826087.29770992h1.91304348l.47826087-.29770992.76521739 1.1908397v1.79173533l-1.33762061.95219798.00695598.391512 1.33066463-.94724634v.39742949l-1.33762061.95219795.00695598.391512 1.33066463-.94724631v.39742951l-1.33762061.952198.00695598.3915119 1.33066463-.9472463v.6896636l-.57391304.8931298-.66956522.6946565h-1.91304348l-.66956521-.6946565-.57391305-.8931298v-.6698637l1.30285038.9274464.00695599-.3915119z"/><path d="m7.93913043 11.7099237 1.24347827-1.2900764v-1.29007631l-1.24347827 1.09160301z" fill-rule="nonzero"/><path d="m1.72173913 11.7099237 1.24347826-1.2900764v-1.29007631l-1.24347826 1.09160301z" fill-rule="nonzero" transform="matrix(-1 0 0 1 4.686956 0)"/><path d="m4.87826087 0h.3826087v5.65648855h-.57391305l-1.24347826-3.77099237.76521739-1.88549618h.28695652v2.28244275l.3826087.19847328zm.76521739 0h.3826087v2.48091603l.38260869-.19847328v-2.28244275h.28695652l.7652174 1.88549618-1.14782609 3.77099237h-.66956522z"/><g fill-rule="nonzero"><path d="m4.68695652 5.65648855-4.11304348-1.58778626-.57391304-2.48091603 3.53913043.29770992 1.24347827 3.77099237z"/><path d="m10.9043478 5.65648855-4.11304345-1.58778626-.57391305-2.48091603 3.63478261.29770992 1.14782609 3.77099237z" transform="matrix(-1 0 0 1 17.217392 0)"/><path d="m7.65217391 1.58778626 2.00869566-.19847328-1.33913044-1.38931298h-1.33913043z"/><path d="m1.91304348 1.58778626 2.00869565-.19847328-1.33913043-1.38931298h-1.33913044z" transform="matrix(-1 0 0 1 5.165218 0)"/></g></g></g></svg>

<?xml version="1.0" encoding="UTF-8"?>
<svg width="57px" height="60px" viewBox="0 0 57 60" version="1.1" xmlns="http://www.w3.org/2000/svg" xmlns:xlink="http://www.w3.org/1999/xlink">
    <!-- Generator: Sketch 50.2 (55047) - http://www.bohemiancoding.com/sketch -->
    <title>icon-mobile</title>
    <desc>Created with Sketch.</desc>
    <defs></defs>
    <g id="Page-1" stroke="none" stroke-width="1" fill="none" fill-rule="evenodd">
        <g id="icon-mobile">
            <polygon id="Shape" fill="#262B2C" fill-rule="nonzero" points="28.34 0 0 9.957 4.323 46.874 28.34 59.979 52.358 46.874 56.681 9.957"></polygon>
            <path d="M20,43.855 C20,44.89 20.856,45.729 21.91,45.729 L33.63,45.729 C34.685,45.729 35.54,44.889 35.54,43.855 L35.54,20.4 L20,20.4 L20,43.855 Z M27.77,41.917 C28.524,41.917 29.137,42.519 29.137,43.258 C29.137,43.998 28.524,44.6 27.77,44.6 C27.015,44.6 26.402,43.998 26.402,43.258 C26.402,42.518 27.015,41.917 27.77,41.917 Z M33.628,16 L21.911,16 C20.856,16 20,16.84 20,17.874 L20,19.774 L35.54,19.774 L35.54,17.874 C35.538,16.84 34.683,16 33.627,16 L33.628,16 Z M24.421,18.329 C24.3069554,18.3300658 24.197159,18.2857814 24.1157671,18.2058898 C24.0343752,18.1259983 23.9880559,18.0170446 23.987,17.903 C23.9880559,17.7889554 24.0343752,17.6800017 24.1157671,17.6001102 C24.197159,17.5202186 24.3069554,17.4759342 24.421,17.477 C24.66,17.477 24.855,17.667 24.855,17.903 C24.8539441,18.0170446 24.8076248,18.1259983 24.7262329,18.2058898 C24.644841,18.2857814 24.5350446,18.3300658 24.421,18.329 Z M29.701,18.215 L25.839,18.215 C25.7554557,18.2157994 25.6750159,18.1833763 25.6153785,18.1248642 C25.5557411,18.066352 25.5217919,17.9865444 25.521,17.903 C25.521,17.73 25.663,17.59 25.839,17.59 L29.7,17.59 C29.876,17.59 30.019,17.73 30.019,17.903 C30.0168036,18.0771332 29.874139,18.2166671 29.7,18.215 L29.701,18.215 Z" id="Shape" fill="#FFFFFF" fill-rule="nonzero"></path>
            <g id="prime-logo-2018" transform="translate(22.500000, 25.000000)">
                <polygon id="chick-right" fill="#262B2C" fill-rule="nonzero" points="8.13043478 5.95419847 7.26956522 5.75572519 7.93913043 6.7480916 7.93913043 9.82442748 10.2347826 7.83969466 10.2347826 4.46564885 9.1826087 4.86259542"></polygon>
                <polygon id="chick-left" fill="#262B2C" fill-rule="nonzero" transform="translate(2.152174, 7.145038) scale(-1, 1) translate(-2.152174, -7.145038) " points="1.53043478 5.95419847 0.669565217 5.75572519 1.33913043 6.7480916 1.33913043 9.82442748 3.63478261 7.83969466 3.63478261 4.46564885 2.5826087 4.86259542"></polygon>
                <path d="M3.25217391,10.3458863 L3.25217391,9.94845683 L4.55502429,10.8759033 L4.56198028,10.4843913 L3.25217391,9.55199319 L3.25217391,9.1545637 L4.55502429,10.0820102 L4.56198028,9.6904982 L3.25217391,8.75810006 L3.25217391,6.94656489 L4.0173913,5.75572519 L4.49565217,6.05343511 L6.40869565,6.05343511 L6.88695652,5.75572519 L7.65217391,6.94656489 L7.65217391,8.73830022 L6.3145533,9.6904982 L6.32150928,10.0820102 L7.65217391,9.13476386 L7.65217391,9.53219335 L6.3145533,10.4843913 L6.32150928,10.8759033 L7.65217391,9.92865699 L7.65217391,10.3260865 L6.3145533,11.2782845 L6.32150928,11.6697964 L7.65217391,10.7225501 L7.65217391,11.4122137 L7.07826087,12.3053435 L6.40869565,13 L4.49565217,13 L3.82608696,12.3053435 L3.25217391,11.4122137 L3.25217391,10.74235 L4.55502429,11.6697964 L4.56198028,11.2782845 L3.25217391,10.3458863 Z" id="mask" fill="#262B2C"></path>
                <g id="mask-effect-right" transform="translate(6.121739, 8.633588)"></g>
                <g id="mask-effect-left" transform="translate(3.060870, 8.633588)"></g>
                <polygon id="bottom-chick-right" fill="#262B2C" fill-rule="nonzero" points="7.93913043 11.7099237 9.1826087 10.4198473 9.1826087 9.12977099 7.93913043 10.221374"></polygon>
                <polygon id="bottom-chick-left" fill="#262B2C" fill-rule="nonzero" transform="translate(2.343478, 10.419847) scale(-1, 1) translate(-2.343478, -10.419847) " points="1.72173913 11.7099237 2.96521739 10.4198473 2.96521739 9.12977099 1.72173913 10.221374"></polygon>
                <path d="M4.87826087,0 L5.26086957,0 L5.26086957,5.65648855 L4.68695652,5.65648855 L3.44347826,1.88549618 L4.20869565,0 L4.49565217,0 L4.49565217,2.28244275 L4.87826087,2.48091603 L4.87826087,0 Z M5.64347826,0 L6.02608696,0 L6.02608696,2.48091603 L6.40869565,2.28244275 L6.40869565,1.91846539e-13 L6.69565217,0 L7.46086957,1.88549618 L6.31304348,5.65648855 L5.64347826,5.65648855 L5.64347826,0 Z" id="head" fill="#262B2C"></path>
                <polygon id="head-left" fill="#262B2C" fill-rule="nonzero" points="4.68695652 5.65648855 0.573913043 4.06870229 0 1.58778626 3.53913043 1.88549618 4.7826087 5.65648855"></polygon>
                <polygon id="head-right" fill="#262B2C" fill-rule="nonzero" transform="translate(8.608696, 3.622137) scale(-1, 1) translate(-8.608696, -3.622137) " points="10.9043478 5.65648855 6.79130435 4.06870229 6.2173913 1.58778626 9.85217391 1.88549618 11 5.65648855"></polygon>
                <polygon id="ear-right" fill="#262B2C" fill-rule="nonzero" points="7.65217391 1.58778626 9.66086957 1.38931298 8.32173913 0 6.9826087 0"></polygon>
                <polygon id="ear-left" fill="#262B2C" fill-rule="nonzero" transform="translate(2.582609, 0.793893) scale(-1, 1) translate(-2.582609, -0.793893) " points="1.91304348 1.58778626 3.92173913 1.38931298 2.5826087 0 1.24347826 0"></polygon>
            </g>
        </g>
    </g>
</svg>
